X:1
T:Sing a Song of Sixpence
C:Traditional
M:4/4
L:1/8
Q:1/4=112
K:C
c B A G c2 E E | G A G E G4 | c B A G c2 E2 | D2 A A A4 |
G c c c c2 c c | B d d d d4 | e d c B c B A G | A c B d c4 |]
w: Sing a song of six-pence a | pock-et full of rye | Four and twen-ty black-birds | baked in a pie | When the pie was o-pened the | birds be-gan to sing | Was-n't that a dain-ty dish to | set be-fore the king
